X:137
T:The Belfast Hornpipe
R: Hornpipe
M: 4/4
L: 1/8
K: Dmaj
|:ag | fadf AdAF | DFAd f2ef | gbeg BeAF | GABG E2ag |
fadf AdAF | DFAd f2ef | gfed cABc | d2f2 d2 :|
|: (3DEF | GFGA Bcde | fgfe dcdB | A2f2 fef2 | G2e2 ede2 |
GFGA Bcde | fgfe dcdB | Afed cABc | d2f2 d2 :|
|: ag | (3fgf (3efe (3ded (3cdc | (3BcB (3ABA G2 ba | (3gag (3fgf (3efe (3ded | (3cdc (3BcB A2 ag |
(3fgf (3efe (3ded (3cdc | (3BcB (3ABA (3GAG (3FGF | Eged cABc | d2 f2 d2 :|


%%newpage
%%scale .7
%%staffsep 35

